resources/svg/major-quick-sale.svg

<svg xmlns="http://www.w3.org/2000/svg" viewBox="0 0 20 20" fill="currentColor"><path fill-rule="evenodd" d="M5 0a1 1 0 0 0 0 2h1v1a1 1 0 0 0 .917.997l10.943.911-.727 5.092h-10.133a1 1 0 0 0-1 1v3.17a3.001 3.001 0 1 0 3.83 1.83h3.34a3 3 0 1 0 2.83-2h-8v-2h10a1 1 0 0 0 .99-.859l1-7a1 1 0 0 0-.907-1.138l-11.083-.923v-1.08a1 1 0 0 0-1-1h-2zm11 16a1 1 0 1 0 0 2 1 1 0 0 0 0-2zm-9 0a1 1 0 1 0 0 2 1 1 0 0 0 0-2z"/><path d="M0 3a1 1 0 0 1 1-1h1a1 1 0 0 1 0 2h-1a1 1 0 0 1-1-1zm1 3a1 1 0 0 0 0 2h6a1 1 0 0 0 0-2h-6zm-1 5a1 1 0 0 1 1-1h2a1 1 0 1 1 0 2h-2a1 1 0 0 1-1-1zm1 3a1 1 0 1 0 0 2h1a1 1 0 1 0 0-2h-1z"/></svg>

<svg xmlns="http://www.w3.org/2000/svg" viewBox="0 0 20 20" fill="currentColor"><path fill="#5C5F62" fill-rule="evenodd" d="M5 0a1 1 0 000 2h1v1a1 1 0 00.917.997l10.943.911L17.133 10H7a1 1 0 00-1 1v3.17A3.001 3.001 0 109.83 16h3.34A3 3 0 1016 14H8v-2h10a1 1 0 00.99-.859l1-7a1 1 0 00-.907-1.138L8 2.08V1a1 1 0 00-1-1H5zm11 16a1 1 0 100 2 1 1 0 000-2zm-9 0a1 1 0 100 2 1 1 0 000-2z"/><path fill="#5C5F62" d="M0 3a1 1 0 011-1h1a1 1 0 010 2H1a1 1 0 01-1-1zM1 6a1 1 0 000 2h6a1 1 0 000-2H1zM0 11a1 1 0 011-1h2a1 1 0 110 2H1a1 1 0 01-1-1zM1 14a1 1 0 100 2h1a1 1 0 100-2H1z"/></svg>
